src/img/preguntas.svg

<svg width="32" height="34" viewBox="0 0 32 34" fill="none" xmlns="http://www.w3.org/2000/svg">
<path d="M16 6.58179C15.3906 6.58179 14.7891 6.64429 14.1953 6.76929C13.6172 6.87866 13.0547 7.05054 12.5078 7.28491C11.9609 7.51929 11.4453 7.80054 10.9609 8.12866C10.4922 8.44116 10.0547 8.80835 9.64844 9.23022C9.22656 9.63647 8.85156 10.0818 8.52344 10.5662C8.21094 11.0349 7.9375 11.5427 7.70312 12.0896C7.46875 12.6365 7.28906 13.2068 7.16406 13.8005C7.05469 14.3787 7 14.9724 7 15.5818C7 16.1912 7.05469 16.7927 7.16406 17.3865C7.28906 17.9646 7.46875 18.5271 7.70312 19.074C7.9375 19.6208 8.21094 20.1365 8.52344 20.6208C8.85156 21.0896 9.22656 21.5271 9.64844 21.9333C10.0547 22.3552 10.4922 22.7302 10.9609 23.0583C11.4453 23.3708 11.9609 23.6443 12.5078 23.8787C13.0547 24.113 13.6172 24.2927 14.1953 24.4177C14.7891 24.5271 15.3906 24.5818 16 24.5818C16.6094 24.5818 17.2031 24.5271 17.7812 24.4177C18.375 24.2927 18.9531 24.113 19.5156 23.8787C20.0469 23.6443 20.5469 23.3708 21.0156 23.0583C21.5 22.7302 21.9531 22.3552 22.375 21.9333C22.7812 21.5271 23.1406 21.0896 23.4531 20.6208C23.7812 20.1365 24.0625 19.6208 24.2969 19.074C24.5312 18.5271 24.7031 17.9646 24.8125 17.3865C24.9375 16.7927 25 16.1912 25 15.5818C25 14.9724 24.9375 14.3787 24.8125 13.8005C24.7031 13.2068 24.5312 12.6365 24.2969 12.0896C24.0625 11.5427 23.7812 11.0349 23.4531 10.5662C23.1406 10.0818 22.7812 9.63647 22.375 9.23022C21.9531 8.80835 21.5 8.44116 21.0156 8.12866C20.5469 7.80054 20.0469 7.51929 19.5156 7.28491C18.9531 7.05054 18.375 6.87866 17.7812 6.76929C17.2031 6.64429 16.6094 6.58179 16 6.58179ZM16 5.57397C17.375 5.57397 18.6719 5.8396 19.8906 6.37085C21.1094 6.88647 22.1719 7.59741 23.0781 8.50366C23.9844 9.40991 24.6953 10.4724 25.2109 11.6912C25.7422 12.9099 26.0078 14.2068 26.0078 15.5818C26.0078 16.9568 25.7422 18.2537 25.2109 19.4724C24.6953 20.6912 23.9844 21.7537 23.0781 22.6599C22.1719 23.5662 21.1094 24.2771 19.8906 24.7927C18.6719 25.324 17.375 25.5896 16 25.5896C14.625 25.5896 13.3281 25.324 12.1094 24.7927C10.8906 24.2771 9.82812 23.5662 8.92188 22.6599C8.03125 21.7537 7.32031 20.6912 6.78906 19.4724C6.25781 18.2537 5.99219 16.9568 5.99219 15.5818C5.99219 14.2068 6.25781 12.9099 6.78906 11.6912C7.32031 10.4724 8.03125 9.40991 8.92188 8.50366C9.82812 7.59741 10.8906 6.88647 12.1094 6.37085C13.3281 5.8396 14.625 5.57397 16 5.57397ZM18.2734 10.4255C18.5391 10.6912 18.7422 11.0115 18.8828 11.3865C19.0391 11.7615 19.1172 12.1755 19.1172 12.6287C19.1172 13.1443 18.9766 13.613 18.6953 14.0349C18.4141 14.4568 18 14.8318 17.4531 15.1599C17.4375 15.1599 17.4219 15.1677 17.4062 15.1833C17.3906 15.1833 17.375 15.1912 17.3594 15.2068C17.1719 15.3005 16.8906 15.5193 16.5156 15.863C16.1562 16.1912 16.0078 16.7615 16.0703 17.574C16.0859 17.6677 16.0859 17.7537 16.0703 17.8318C16.0547 17.9099 16.0234 17.9802 15.9766 18.0427C15.9297 18.0896 15.875 18.1365 15.8125 18.1833C15.75 18.2146 15.6875 18.2302 15.625 18.2302C15.6094 18.2302 15.5938 18.238 15.5781 18.2537C15.5625 18.2537 15.5469 18.2537 15.5312 18.2537C15.4531 18.2537 15.3828 18.2458 15.3203 18.2302C15.2734 18.199 15.2188 18.1599 15.1562 18.113C15.0938 18.0662 15.0391 18.0037 14.9922 17.9255C14.9609 17.8318 14.9375 17.7302 14.9219 17.6208C14.8906 17.1365 14.9297 16.6912 15.0391 16.2849C15.1484 15.8787 15.3359 15.5115 15.6016 15.1833C15.8047 14.9333 16.0078 14.738 16.2109 14.5974C16.4297 14.4412 16.6016 14.3318 16.7266 14.2693C16.7422 14.2693 16.75 14.2693 16.75 14.2693C16.7656 14.2537 16.7734 14.2458 16.7734 14.2458C17.1172 14.0427 17.3984 13.824 17.6172 13.5896C17.8359 13.3396 17.9453 13.0193 17.9453 12.6287C17.9453 12.0505 17.7578 11.5818 17.3828 11.2224C17.0234 10.8474 16.5547 10.6599 15.9766 10.6599C15.7109 10.6599 15.4375 10.7224 15.1562 10.8474C14.8906 10.9568 14.6719 11.1052 14.5 11.2927C14.3438 11.449 14.2266 11.6208 14.1484 11.8083C14.0859 11.9958 14.0547 12.199 14.0547 12.4177C14.0703 12.5896 14.0156 12.7224 13.8906 12.8162C13.7812 12.8943 13.6641 12.9412 13.5391 12.9568C13.4609 12.9724 13.3828 12.9724 13.3047 12.9568C13.2266 12.9255 13.1641 12.8787 13.1172 12.8162C13.0391 12.7693 12.9844 12.699 12.9531 12.6052C12.9219 12.5115 12.9062 12.4177 12.9062 12.324C12.9062 11.7615 13.0234 11.3083 13.2578 10.9646C13.4922 10.6052 13.7266 10.3318 13.9609 10.1443C14.2422 9.94116 14.5547 9.78491 14.8984 9.67554C15.2578 9.55054 15.6172 9.48804 15.9766 9.48804C16.4297 9.48804 16.8438 9.56616 17.2188 9.72241C17.5938 9.87866 17.9453 10.113 18.2734 10.4255ZM15.5078 21.5818C15.7734 21.5818 16 21.488 16.1875 21.3005C16.3906 21.0974 16.4922 20.8552 16.4922 20.574C16.4922 20.3083 16.3906 20.0818 16.1875 19.8943C16 19.6912 15.7734 19.5896 15.5078 19.5896C15.2266 19.5896 14.9844 19.6912 14.7812 19.8943C14.5938 20.0818 14.5 20.3083 14.5 20.574C14.5 20.8552 14.5938 21.0974 14.7812 21.3005C14.9844 21.488 15.2266 21.5818 15.5078 21.5818Z" fill="#EC7000"/>
</svg>

<svg width="32" height="34" fill="none" xmlns="http://www.w3.org/2000/svg"><path d="M16 6.582c-.61 0-1.21.062-1.805.187a8.09 8.09 0 00-1.687.516 9.243 9.243 0 00-1.547.844A7.92 7.92 0 009.648 9.23a8.354 8.354 0 00-1.125 1.336 9.445 9.445 0 00-.82 1.524 9.083 9.083 0 00-.539 1.71 9.942 9.942 0 000 3.586c.125.579.305 1.141.54 1.688.234.547.507 1.063.82 1.547a8.92 8.92 0 001.124 1.312 8.94 8.94 0 001.313 1.125c.484.313 1 .586 1.547.82.547.235 1.11.415 1.687.54a9.939 9.939 0 003.586 0 9.695 9.695 0 001.735-.54 9.904 9.904 0 001.5-.82 9.278 9.278 0 001.359-1.125 9.245 9.245 0 001.922-2.86 8.061 8.061 0 00.515-1.686A8.737 8.737 0 0025 15.582c0-.61-.063-1.203-.188-1.782a8.022 8.022 0 00-.515-1.71 8.456 8.456 0 00-.844-1.524 8.23 8.23 0 00-2.438-2.438 8.805 8.805 0 00-1.5-.843 8.501 8.501 0 00-1.734-.516A8.404 8.404 0 0016 6.582zm0-1.008a9.63 9.63 0 013.89.797 9.928 9.928 0 013.188 2.133 9.928 9.928 0 012.133 3.187 9.63 9.63 0 01.797 3.89 9.63 9.63 0 01-.797 3.891 9.927 9.927 0 01-2.133 3.188 9.927 9.927 0 01-3.187 2.133A9.63 9.63 0 0116 25.59a9.63 9.63 0 01-3.89-.797 9.928 9.928 0 01-3.188-2.133 10.463 10.463 0 01-2.133-3.188 9.63 9.63 0 01-.797-3.89 9.63 9.63 0 01.797-3.89 10.464 10.464 0 012.133-3.188 9.929 9.929 0 013.187-2.133A9.63 9.63 0 0116 5.574zm2.273 4.851c.266.266.47.586.61.961.156.376.234.79.234 1.243 0 .515-.14.984-.422 1.406-.28.422-.695.797-1.242 1.125-.015 0-.031.008-.047.023-.015 0-.031.008-.047.024-.187.093-.468.312-.843.656-.36.328-.508.899-.446 1.711a.714.714 0 010 .258.516.516 0 01-.093.21 1.522 1.522 0 01-.165.141.415.415 0 01-.187.047c-.016 0-.031.008-.047.024h-.047a.872.872 0 01-.21-.024 3.688 3.688 0 01-.165-.117.645.645 0 01-.164-.188 1.733 1.733 0 01-.07-.304 4.1 4.1 0 01.117-1.336 2.95 2.95 0 01.563-1.102c.203-.25.406-.445.609-.586.219-.156.39-.265.516-.328h.023l.023-.023c.344-.203.625-.422.844-.656.219-.25.328-.57.328-.961 0-.579-.187-1.047-.562-1.407-.36-.375-.828-.562-1.406-.562-.266 0-.54.062-.82.187-.266.11-.485.258-.657.446a1.597 1.597 0 00-.352.515 1.935 1.935 0 00-.093.61c.015.172-.04.304-.164.398a.76.76 0 01-.352.14.593.593 0 01-.234 0 .427.427 0 01-.188-.14.374.374 0 01-.164-.21.886.886 0 01-.047-.282c0-.563.117-1.016.352-1.36.234-.359.469-.632.703-.82.281-.203.594-.36.937-.468.36-.125.72-.188 1.079-.188a3.2 3.2 0 011.242.234c.375.157.726.391 1.054.704zm-2.765 11.157a.926.926 0 00.68-.282.992.992 0 00.304-.726.892.892 0 00-.305-.68.892.892 0 00-.68-.304.992.992 0 00-.726.304.926.926 0 00-.281.68c0 .281.094.523.281.726.203.188.446.282.727.282z" fill="#EC7000"/></svg>
